X:584
T:Iron Bridge
S:Bruce & Emmett's Drummers and Fifers Guide (1862), p. 58
M:2/4
L:1/16
Q:1/4=100
K:G
%%MIDI program 72
%%MIDI transpose 8
%%MIDI ratio 3 1
D2|G2(3BAG FADF|GBdB gdBG|EGed cBAG|AGFE DEFA|G2(3BAG FADF|
GBdB gdBd|ecAF DGFA|G2B2G2::[K:D]FG|Adce dfeg|fd (3(efg) fdef|gfeg fedf|
(3(efe) (3(dcB) A2GF|GBdg FAdf|EGce dAFA|Bgfe dcBc|[1 d2f2d2:|[2 dcde d=c!D.C.!BA||
